icons/solid/folder.svg

<svg width="24" height="24" viewBox="0 0 24 24" fill="none" xmlns="http://www.w3.org/2000/svg">
<path fill-rule="evenodd" clip-rule="evenodd" d="M5 3C3.34315 3 2 4.34315 2 6V18C2 19.6569 3.34315 21 5 21H19C20.6569 21 22 19.6569 22 18V9C22 7.34315 20.6569 6 19 6H13.0704C12.736 6 12.4238 5.8329 12.2383 5.5547L11.4258 4.3359C10.8694 3.5013 9.93269 3 8.92963 3H5Z" fill="currentColor"/>
</svg>

<svg width="24" height="24" fill="none" xmlns="http://www.w3.org/2000/svg"><path fill-rule="evenodd" clip-rule="evenodd" d="M5 3a3 3 0 00-3 3v12a3 3 0 003 3h14a3 3 0 003-3V9a3 3 0 00-3-3h-5.93a1 1 0 01-.832-.445l-.812-1.22A3 3 0 008.93 3H5z" fill="currentColor"/></svg>
